svg/weather/floating_dust_fill.svg

<?xml version="1.0" encoding="UTF-8"?>
<svg width="24px" height="24px" viewBox="0 0 24 24" version="1.1" xmlns="http://www.w3.org/2000/svg" xmlns:xlink="http://www.w3.org/1999/xlink">
    <title>floating_dust_fill</title>
    <g id="Icon" stroke="none" stroke-width="1" fill="none" fill-rule="evenodd">
        <g id="Weather" transform="translate(-193.000000, -144.000000)">
            <g id="floating_dust_fill" transform="translate(193.000000, 144.000000)">
                <path d="M24,0 L24,24 L0,24 L0,0 L24,0 Z M12.5935,23.2578 L12.5819,23.2595 L12.5109,23.295 L12.4919,23.2987 L12.4767,23.295 L12.4057,23.2595 C12.3958,23.2564 12.387,23.259 12.3821,23.2649 L12.378,23.2758 L12.3609,23.7031 L12.3659,23.7235 L12.3769,23.7357 L12.4805,23.8097 L12.4953,23.8136 L12.5071,23.8097 L12.6107,23.7357 L12.6233,23.7197 L12.6267,23.7031 L12.6096,23.2758 C12.6076,23.2657 12.601,23.2593 12.5935,23.2578 Z M12.8584,23.1453 L12.8445,23.1473 L12.6598,23.2397 L12.6499,23.2499 L12.6472,23.2611 L12.6651,23.6906 L12.6699,23.7034 L12.6784,23.7105 L12.8793,23.8032 C12.8914,23.8069 12.9022,23.803 12.9078,23.7952 L12.9118,23.7812 L12.8777,23.1665 C12.8753,23.1546 12.8674,23.147 12.8584,23.1453 Z M12.143,23.1473 C12.1332,23.1424 12.1222,23.1453 12.1156,23.1526 L12.1099,23.1665 L12.0758,23.7812 C12.0751,23.7927 12.0828,23.8019 12.0926,23.8046 L12.1083,23.8032 L12.3092,23.7105 L12.3186,23.7024 L12.3225,23.6906 L12.3404,23.2611 L12.3372,23.2485 L12.3278,23.2397 L12.143,23.1473 Z" id="MingCute" fill-rule="nonzero"></path>
                <path d="M4.5,4 C4.5,3.17157 5.17157,2.5 6,2.5 L7.5,2.5 C8.32843,2.5 9,3.17157 9,4 C9,4.82843 8.32843,5.5 7.5,5.5 L6,5.5 C5.17157,5.5 4.5,4.82843 4.5,4 Z M10,4 C10,3.17157 10.6716,2.5 11.5,2.5 L20,2.5 C20.8284,2.5 21.5,3.17157 21.5,4 C21.5,4.82843 20.8284,5.5 20,5.5 L11.5,5.5 C10.6716,5.5 10,4.82843 10,4 Z M2.5,9 C2.5,8.17157 3.17157,7.5 4,7.5 L12.5,7.5 C13.3284,7.5 14,8.17157 14,9 C14,9.82843 13.3284,10.5 12.5,10.5 L4,10.5 C3.17157,10.5 2.5,9.82843 2.5,9 Z M15,9 C15,8.17157 15.6716,7.5 16.5,7.5 L18,7.5 C18.8284,7.5 19.5,8.17157 19.5,9 C19.5,9.82843 18.8284,10.5 18,10.5 L16.5,10.5 C15.6716,10.5 15,9.82843 15,9 Z M4.5,14 C4.5,13.1716 5.17157,12.5 6,12.5 L7.5,12.5 C8.32843,12.5 9,13.1716 9,14 C9,14.8284 8.32843,15.5 7.5,15.5 L6,15.5 C5.17157,15.5 4.5,14.8284 4.5,14 Z M10,14 C10,13.1716 10.6716,12.5 11.5,12.5 L20,12.5 C20.8284,12.5 21.5,13.1716 21.5,14 C21.5,14.8284 20.8284,15.5 20,15.5 L11.5,15.5 C10.6716,15.5 10,14.8284 10,14 Z M2.5,19 C2.5,18.1716 3.17157,17.5 4,17.5 L12.5,17.5 C13.3284,17.5 14,18.1716 14,19 C14,19.8284 13.3284,20.5 12.5,20.5 L4,20.5 C3.17157,20.5 2.5,19.8284 2.5,19 Z M15,19 C15,18.1716 15.6716,17.5 16.5,17.5 L18,17.5 C18.8284,17.5 19.5,18.1716 19.5,19 C19.5,19.8284 18.8284,20.5 18,20.5 L16.5,20.5 C15.6716,20.5 15,19.8284 15,19 Z" id="形状" fill="#09244B"></path>
            </g>
        </g>
    </g>
</svg>

<svg xmlns="http://www.w3.org/2000/svg" width="24" height="24"><g fill="none" fill-rule="evenodd"><path d="M24 0v24H0V0h24ZM12.594 23.258l-.012.002-.071.035-.02.004-.014-.004-.071-.036c-.01-.003-.019 0-.024.006l-.004.01-.017.428.005.02.01.013.104.074.015.004.012-.004.104-.074.012-.016.004-.017-.017-.427c-.002-.01-.009-.017-.016-.018Zm.264-.113-.014.002-.184.093-.01.01-.003.011.018.43.005.012.008.008.201.092c.012.004.023 0 .029-.008l.004-.014-.034-.614c-.003-.012-.01-.02-.02-.022Zm-.715.002a.023.023 0 0 0-.027.006l-.006.014-.034.614c0 .012.007.02.017.024l.015-.002.201-.093.01-.008.003-.011.018-.43-.003-.012-.01-.01-.184-.092Z"/><path fill="#09244B" d="M4.5 4A1.5 1.5 0 0 1 6 2.5h1.5a1.5 1.5 0 1 1 0 3H6A1.5 1.5 0 0 1 4.5 4ZM10 4a1.5 1.5 0 0 1 1.5-1.5H20a1.5 1.5 0 0 1 0 3h-8.5A1.5 1.5 0 0 1 10 4ZM2.5 9A1.5 1.5 0 0 1 4 7.5h8.5a1.5 1.5 0 0 1 0 3H4A1.5 1.5 0 0 1 2.5 9ZM15 9a1.5 1.5 0 0 1 1.5-1.5H18a1.5 1.5 0 0 1 0 3h-1.5A1.5 1.5 0 0 1 15 9ZM4.5 14A1.5 1.5 0 0 1 6 12.5h1.5a1.5 1.5 0 0 1 0 3H6A1.5 1.5 0 0 1 4.5 14Zm5.5 0a1.5 1.5 0 0 1 1.5-1.5H20a1.5 1.5 0 0 1 0 3h-8.5A1.5 1.5 0 0 1 10 14Zm-7.5 5A1.5 1.5 0 0 1 4 17.5h8.5a1.5 1.5 0 0 1 0 3H4A1.5 1.5 0 0 1 2.5 19ZM15 19a1.5 1.5 0 0 1 1.5-1.5H18a1.5 1.5 0 0 1 0 3h-1.5A1.5 1.5 0 0 1 15 19Z"/></g></svg>
